X: 1709
T: Bob Sanders
%
P: Mrs Stewart's Fancy
C:Abraham Mackintosh
R:Jig (8x40) ABABB
B:RSCDS 17-9
Z:Anselm Lingnau <anselm@strathspey.org>
M:6/8
L:1/8
K:A
f |\
"A"e2c ca=g | "Bm"fdB B2f | "A"ecA Ace | "Bm"f3 f2g |
"A/C#"agf edc | "D"fdB B2 f/g/ | "A/E"aec "E7"dcB | "A"A3 A2 ||
E |\
"F#m"A2A AcB | "Bm"AFF F2E | "A/C#"AcB Ace | "D"f3 f2g |
"A"agf edc | "Bm"fdB B2 f/g/ | "A"aec "E7"dBg | "A"A3 A2 |]
%
P: Was there e'er such a lassie as I?
R: jig
B: RSCDS 17-9(II)
Z: 1997 by John Chambers <jc:trillian.mit.edu>
N: "Old Song"
M: 6/8
L: 1/8
K: G
|: D \
| "G"G/A/BB BAG | Bdd d2B | "Am"ceA "G"BdG | "D7"cEF "G"G2 :: B/c/ | "G"dBB "/F"dBB |
"Em"GEE E2F/G/ | "D"AFF "(A7)"dAA | "D"FDD D2B/c/ | "G"ded "/F"dgd | "Em"BGG G2c/d/ |
"Am"efe "A7"eag | "D"fdd d2B/c/ || "G"dBB "/F"dBB | "Em"GEE E2F/G/ | "D"AFF "(A7)"dAA |
"D"FDD D2B | "Am"cec "G"BdB | "A7"ABG "D7"FED | "Am"c/d/eA "G"B/c/dG | "D7"cEF "G"G2 :|
%%center Book17/1709-Bob_Sanders.abc

%%sep 1 1 500
%%sep 1 1 500

